X: 16
T: Silver Spear, The
Z: Finnbarr
S: https://thesession.org/tunes/182#setting49261
R: reel
M: 4/4
L: 1/8
K: Dmaj
|:A2|FA AA BAFA|dfed B2 A2|FA AA BAFA|dfed B2 A2|
FA AA BAFA|dfed (4Bcde)|f g3 e f3|ed fed|B2 A2:|
|:fa aa bfaf|gfed B2 A2|fa aa bfaf|gfed ~B2 A2|
fa aa bfaf|gfed (4Bcde)|f g3 e f3|ed fed ~B2 A2:|

